X: 28714
T: My Darling Asleep
R: jig
M: 6/8
K: Dmajor
|:fdd cAc|BGB A2F|DFA def|~g3 efg|
fed cBA|BdB A2G|FAA def|1 gec d2e:|2 gec d2A||
|:FAA BAG|FAA Bcd|F2A def|~g3 efg|
fed cBA|BAG A2G|FAA def|1 gec d2A:|2 gec d2e||

